src/ui/asset/warning.svg

<svg width="20" height="20" viewBox="0 0 20 20" fill="none" xmlns="http://www.w3.org/2000/svg">
<path fill-rule="evenodd" clip-rule="evenodd" d="M10 1.99951C5.58172 1.99951 2 5.58123 2 9.99951C2 14.4178 5.58172 17.9995 10 17.9995C14.4183 17.9995 18 14.4178 18 9.99951C18 5.58123 14.4183 1.99951 10 1.99951ZM0 9.99951C0 4.47666 4.47715 -0.000488281 10 -0.000488281C15.5228 -0.000488281 20 4.47666 20 9.99951C20 15.5224 15.5228 19.9995 10 19.9995C4.47715 19.9995 0 15.5224 0 9.99951Z" fill="currentColor"/>
<path d="M8.58331 5.53354C8.5636 5.24467 8.79261 4.99951 9.08215 4.99951H10.9179C11.2074 4.99951 11.4364 5.24468 11.4167 5.53354L11.0005 11.6338C10.9826 11.8962 10.7646 12.0998 10.5017 12.0998H9.4983C9.23537 12.0998 9.01736 11.8961 8.99946 11.6338L8.58331 5.53354ZM10 15.9995C9.57292 15.9995 9.21354 15.8649 8.92188 15.5956C8.64062 15.3159 8.5 14.9793 8.5 14.5857C8.5 14.1921 8.64062 13.8658 8.92188 13.6069C9.20312 13.3376 9.5625 13.2029 10 13.2029C10.4375 13.2029 10.7969 13.3376 11.0781 13.6069C11.3594 13.8658 11.5 14.1921 11.5 14.5857C11.5 14.9793 11.3542 15.3159 11.0625 15.5956C10.7812 15.8649 10.4271 15.9995 10 15.9995Z" fill="currentColor"/>
</svg>

<svg width="20" height="20" fill="none" xmlns="http://www.w3.org/2000/svg"><path fill-rule="evenodd" clip-rule="evenodd" d="M10 2a8 8 0 100 16 8 8 0 000-16zM0 10C0 4.477 4.477 0 10 0s10 4.477 10 10c0 5.522-4.477 10-10 10S0 15.522 0 10z" fill="currentColor"/><path d="M8.583 5.534a.5.5 0 01.5-.534h1.835a.5.5 0 01.499.534l-.416 6.1a.5.5 0 01-.5.466H9.499A.5.5 0 019 11.634l-.416-6.1zM10 15.999c-.427 0-.786-.134-1.078-.403a1.373 1.373 0 01-.422-1.01c0-.394.14-.72.422-.98.281-.268.64-.403 1.078-.403.438 0 .797.135 1.078.404.281.259.422.585.422.979 0 .393-.146.73-.438 1.01-.28.269-.635.403-1.062.403z" fill="currentColor"/></svg>
